X:1
T:Title
%%score { ( 1 3 4 ) | ( 2 5 ) }
L:1/8
Q:1/4=100
M:4/4
K:Bb
V:1 treble nm="Grand Piano"
V:3 treble 
V:4 treble 
V:2 bass 
V:5 bass 
V:1
 [B,D][CE][_D=E][=DF] [_EG][DF][B,D][DF] | [DB]2 [EA]2 A4 | c6 z2 | [Ec]2 [DB]2 [DB]4 | %4
w: F.~H.~Shaul * * * * * * *||||
 [B,D][CE][_D=E][=DF] [_EG][DF][DB][Ec] | [GB]2 [FA]2 z2 F2 | [=Ec][Ed][Ec][EB] [EA]2 [EG]2 | F8 | %8
w: ||||
 B6 z2 | [Ed]2 [Ec]2 c4 | c6 z2 | [Ec]2 [DB]2 [DB]4 | [Fd][Fd][^Fd][DFc] [DGB]2 [CFA][GB] | %13
w: |||||
[M:5/4] [Gc][Gc][FGd][FGd] [EGe]6 |[M:4/4] [Fd]cB[Fd] .[Ff]2 .fE | B8[K:bass] |] %16
w: |||
V:2
 [B,,F,][B,,F,][B,,B,][B,,B,] [B,,B,][B,,B,][B,,F,][B,,B,] | [B,,F,]2 [C,F,]2 [F,CE]4 | %2
 [F,A,E]2 [F,A,]2 [F,A,][F,A,E][F,CE][F,A,E] | [B,,B,]2 [B,,F,]2 [B,,F,]4 | %4
 [B,,F,][B,,F,][B,,B,][B,,B,] [B,,B,][B,,B,][B,,B,][B,,B,] | [E,B,]2 [E,B,]2 [E,B,E]2 [D,=B,]2 | %6
 [C,C][C,G,][C,G,][C,G,] [C,C]2 [C,B,]2 | [F,A,]2 E,2 [D,B,]2 [C,A,]2 | %8
 [B,,B,]2 [B,,B,]2 [B,,B,]2 z[K:treble] d | [C,B,]2 [C,A,]2 [F,A,E]4 | [F,A,E]2 [F,A,]2 z E z A, | %11
 [B,,B,]2 [B,,F,]2 [B,,F,]4 | [B,,B,][B,,B,][D,A,]D, G,2 z B, | %13
[M:5/4] [E,B,][E,B,][D,=B,][D,B,] [C,C]6 |[M:4/4] [D,B,][E,G,E][F,D][D,B,] .[C,A,]2 .[A,F]C | %15
 B,,2 B,,B,, B,,4 |] %16
V:3
 x8 | x8 | z2 E2 EFAc | x8 | x8 | z4 G4 | x8 | z2 C2 D2 E2 | D2 D2 z F .[B,DB]2 | x8 | %10
 z2 E2 EF[CEA][Ec] | x8 | x8 |[M:5/4] x10 |[M:4/4] x8 | [B,D]2 [A,F][K:bass][G,E] [F,D]4 |] %16
V:4
 x8 | x8 | x8 | x8 | x8 | x8 | x8 | x8 | z4 D2 z2 | x8 | x8 | x8 | x8 |[M:5/4] x10 |[M:4/4] x8 | %15
 x3[K:bass] x5 |] %16
V:5
 x8 | x8 | x8 | x8 | x8 | x8 | x8 | x8 | z4 z2 B,,2[K:treble] | x8 | z4 [F,A,]2 F,2 | x8 | %12
 z4 z2 D,2 |[M:5/4] x10 |[M:4/4] z4 z2 F,2 | x8 |] %16

